!!!!SEGMENT: pl-kk--kk-i-7--017_anonim--ave-hierarchia.krn
!!!cenid: 16xx:807
!!!COM: Anonim
!!!COM-rismID:
!!!CDT:
!!!CNT:
!!!OTL: Ave Hierarchia
!!!PDT:
!!!AGN: Sacred
!!!SMS-siglum: PL-Kk
!!!SMS-shelfmark: Kk.I.7
!!!SMS-shelfwork: 017 W
!!!SMS-variant:
!!!SMS-altvar:
!!!NIFC-rismSourceID: 300258094
!!!NIFC-islandoraID: pl-kk:1956
!!!URL-pdf-islandora: https://repozytorium.nifc.pl/islandora/object/pl-kk%3A1956/datastream/PDF/view
!!!URL-scan: https://polish.musicsources.pl/pl/lokalizacje/galeria/rekopisy/6140 @EN{Scan on Polish Music Herritage in Open Access Website} @PL{Skany w portalu Dziedzictwo Muzyki Polskiej w otwartym dostępie}
!!!ONB-nifc: UWAGA: C (skan 0013, s. 20), A (0100, s. 20), T (0176, s. 16), B (0265, s. 20-21). Następny utwór: Ave Maria
!!!AIN: 1 alto 1 bass 1 soprn 1 tenor
!!!key:
**kern	**text	**text	**kern	**text	**text	**kern	**text	**text	**kern	**text	**text
*part4	*part4	*part4	*part3	*part3	*part3	*part2	*part2	*part2	*part1	*part1	*part1
*staff4	*staff4	*staff4	*staff3	*staff3	*staff3	*staff2	*staff2	*staff2	*staff1	*staff1	*staff1
*	*verse 1	*verse 2	*	*verse 1	*verse 2	*	*verse 1	*verse 2	*	*verse 1	*verse 2
*Ibass	*	*	*Itenor	*	*	*Ialto	*	*	*Isoprn	*	*
*I"BASSVS.	*	*	*I"TENOR.	*	*	*I"ALTVS.	*	*	*I"CANTVS.	*	*
*I'B	*	*	*I'T	*	*	*I'A	*	*	*I'S	*	*
*clefF4	*	*	*clefC4	*	*	*clefC4	*	*	*clefC3	*	*
*k[b-]	*	*	*k[b-]	*	*	*k[b-]	*	*	*k[b-]	*	*
*F:	*	*	*F:	*	*	*F:	*	*	*F:	*	*
*M2/1	*	*	*M2/1	*	*	*M2/1	*	*	*M2/1	*	*
*met(C|)	*	*	*met(C|)	*	*	*met(C|)	*	*	*met(C|)	*	*
=1-	=1-	=1-	=1-	=1-	=1-	=1-	=1-	=1-	=1-	=1-	=1-
!LO:TX:t=P:problem=inicjał "A" na początku pięciolinii, przed kluczem	!	!	!LO:TX:t=P:problem=inicjał "A" na początku pięciolinii, przed kluczem	!	!	!LO:TX:t=P:problem=inicjał "A" na początku pięciolinii, przed kluczem	!	!	!LO:TX:t=P:problem=inicjał "A" na początku pięciolinii, przed kluczem	!	!
1F	A-	Ma-	1F	A-	Ma-	1c	A-	Ma-	1f	A-	Ma-
!	!	!	!LO:TX:t=P:problem=kreska pseudotaktowa	!	!	!	!	!	!LO:TX:t=P:problem=kreska pseudotaktowa	!	!
2D/	-ue	-ri-	1F	-ue	-ri-	2d\	-ue	-ri-	1f	-ue	-ri-
*2\right	*	*	*	*	*	*	*	*	*	*	*
!LO:TX:t=P::problem=kreska pseudotaktowa&colon;między nutą a kropką	!	!	!	!	!	!	!	!	!	!	!
!	!	!	!	!	!	!LO:TX:t=P:problem=4\right&colon; global	!	!	!	!	!
2.F\	.	-a	.	.	.	4c\	Hie-	-a	.	.	.
!	!	!	!	!	!	!LO:TX:t=P:problem=kreska pseudotaktowa	!	!	!	!	!
.	.	.	.	.	.	4B-\	.	.	.	.	.
=2-	=2-	=2-	=2-	=2-	=2-	=2-	=2-	=2-	=2-	=2-	=2-
.	.	.	1A	Hie-	-a	4A/	.	.	1f	Hie-	-a
!LO:TX:t=P:problem=4\right&colon; global	!	!	!	!	!	!	!	!	!	!	!
4E\	Hie-	.	.	.	.	4G/	.	.	.	.	.
4D/	.	.	.	.	.	1F/	.	.	.	.	.
!LO:TX:t=P:problem=kreska pseudotaktowa	!	!	!	!	!	!	!	!	!	!	!
4C/	.	.	.	.	.	.	.	.	.	.	.
*	*	*	*	*	*	*	*	*	*2\right	*	*
2BB-/	-rar-	.	1B-	-rar-	be-	.	.	.	2d\	-rar-	be-
!	!	!	!	!	!	!	!	!	!LO:TX:t=P::problem=kreska pseudotaktowa&colon;między nutą a kropką	!	!
2GG/	.	be-	.	.	.	1G/	.	.	2.g\	.	.
=3-	=3-	=3-	=3-	=3-	=3-	=3-	=3-	=3-	=3-	=3-	=3-
!LO:TX:t=P:problem=kreska pseudotaktowa	!	!	!	!	!	!	!	!	!	!	!
0C	-chia	-a-	0c	-chia	-a-	.	.	.	.	.	.
!	!	!	!	!	!	!	!	!	!LO:TX:t=P:problem=4\right&colon; global	!	!
.	.	.	.	.	.	.	.	.	4f\	.	.
!	!	!	!	!	!	!LO:TX:t=P:problem=kreska pseudotaktowa	!	!	!	!	!
.	.	.	.	.	.	2A/	-rar-	be-	1f	-chia	-a-
.	.	.	.	.	.	1G	-chia	-a-	.	.	.
!	!	!	!	!	!	!	!	!	!LO:TX:t=P:problem=kreska pseudotaktowa	!	!
.	.	.	.	.	.	.	.	.	2e\	.	-ta
=4-	=4-	=4-	=4-	=4-	=4-	=4-	=4-	=4-	=4-	=4-	=4-
!	!	!	!LO:TX:t=P:problem=kreska pseudotaktowa	!	!	!	!	!	!	!	!
2FF/	.	-ta	0c	.	-ta	2F/	.	-ta	2f\	.	.
1F\	Cae-	.	.	.	.	1A\	cae-	do-	4F/	Cae-	do-
!	!	!	!	!	!	!	!	!	!LO:TX:t=P:problem=kreska pseudotaktowa	!	!
.	.	.	.	.	.	.	.	.	4G/	.	.
.	.	.	.	.	.	.	.	.	4A/	.	.
.	.	.	.	.	.	.	.	.	4B-/	.	.
!LO:TX:t=P:problem=kreska pseudotaktowa	!	!	!	!	!	!	!	!	!	!	!
2E\	.	.	.	.	.	1G/	.	.	1c	.	.
=5-	=5-	=5-	=5-	=5-	=5-	=5-	=5-	=5-	=5-	=5-	=5-
1D	-le-	do-	1d	Cae-	do-	.	.	.	.	.	.
!	!	!	!	!	!	!LO:TX:t=P:problem=kreska pseudotaktowa	!	!	!LO:TX:t=P:problem=kreska pseudotaktowa	!	!
.	.	.	.	.	.	2F/	-le-	-ce	2B-/	-le-	-ce
4C/	-ſtis	-ce	1e	-le-	-ce	2G/	-ſtis	.	1c	.	nos
4BB-/	.	.	.	.	.	.	.	.	.	.	.
*	*	*	*	*	*	*2\right	*	*	*	*	*
4AA/	.	.	.	.	.	2.c\	et	nos	.	.	.
!LO:TX:t=P:problem=kreska pseudotaktowa	!	!	!	!	!	!	!	!	!	!	!
4GG/	.	.	.	.	.	.	.	.	.	.	.
=6-	=6-	=6-	=6-	=6-	=6-	=6-	=6-	=6-	=6-	=6-	=6-
!	!	!	!LO:TX:t=P:problem=kreska pseudotaktowa	!	!	!	!	!	!	!	!
2FF/	et	nos	1f	-ſtis	nos	.	.	.	2A/	-ſtis	.
!	!	!	!	!	!	!LO:TX:t=P:problem=4\right&colon; global	!	!	!	!	!
.	.	.	.	.	.	4B-\	.	.	.	.	.
1F\	.	.	.	.	.	4A/	.	.	2.c/	et	man-
!	!	!	!	!	!	!LO:TX:t=P:problem=kreska pseudotaktowa	!	!	!	!	!
.	.	.	.	.	.	4G/	.	.	.	.	.
*	*	*	*custos:A	*	*	*	*	*	*	*	*
.	.	.	1c	et	man-	2F/	.	man-	.	.	.
.	.	.	.	.	.	.	.	.	4d\	.	.
!LO:TX:t=P:problem=kreska pseudotaktowa	!	!	!	!	!	!	!	!	!LO:TX:t=P:problem=kreska pseudotaktowa	!	!
2E\	.	.	.	.	.	2G/	pi-	.	2e\	.	-da-
!	!	!	!LO:LB:g=original	!	!	!	!	!	!	!	!
=7-	=7-	=7-	=7-	=7-	=7-	=7-	=7-	=7-	=7-	=7-	=7-
*	*	*	*lig	*	*	*	*	*	*	*	*
!	!	!	!LO:TX:t=P::problem=ligatury w tenorze nie według notacji menzuralnej&colon; wskazują tylko miejsce dwusylabowych melizmatów.	!	!	!	!	!	!	!	!
2.F\	.	man-	1A	pi-	-da-	1A	.	-da-	2c/	.	.
.	.	.	.	.	.	.	.	.	1f\	Pi-	.
4E\	.	.	.	.	.	.	.	.	.	.	.
!	!	!	!	!	!	!LO:TX:t=P:problem=kreska pseudotaktowa	!	!	!	!	!
1D	pi-	-da-	1B-	.	.	1F	.	-ta	.	.	.
.	.	.	.	.	.	.	.	.	4e\	.	.
!	!	!	!	!	!	!	!	!	!LO:TX:t=P:problem=kreska pseudotaktowa	!	!
.	.	.	.	.	.	.	.	.	4d\	.	.
*	*	*	*Xlig	*	*	*	*	*	*	*	*
=8-	=8-	=8-	=8-	=8-	=8-	=8-	=8-	=8-	=8-	=8-	=8-
!LO:TX:t=P:problem=kreska pseudotaktowa	!	!	!LO:TX:t=P:problem=kreska pseudotaktowa	!	!	!	!	!	!LO:TX:t=P:problem=kreska pseudotaktowa	!	!
0C	-a	-ta	0c	-a	-ta	0G	-a	.	0e	-a	-ta
.	.	.	.	.	.	.	.	.	.	.	.
=9-	=9-	=9-	=9-	=9-	=9-	=9-	=9-	=9-	=9-	=9-	=9-
2.GG/	De-	no-	1B-	De-	No-	4G/	.	.	1.d	De-	No-
.	.	.	.	.	.	4A/	.	.	.	.	.
.	.	.	.	.	.	4B-\	De-	No-	.	.	.
!	!	!	!	!	!	!LO:TX:t=P:problem=kreska pseudotaktowa	!	!	!	!	!
4AA/	.	.	.	.	.	4c\	.	.	.	.	.
!	!	!	!LO:TX:t=P:problem=kreska pseudotaktowa	!	!	!	!	!	!	!	!
2BB-/	.	.	1G	-i	-uae	2d\	.	.	.	.	.
!LO:TX:t=P:problem=kreska pseudotaktowa	!	!	!	!	!	!	!	!	!LO:TX:t=P:problem=kreska pseudotaktowa	!	!
2C/	-i	-uae	.	.	.	1c\	-i	.	2e\	.	-uae
=10-	=10-	=10-	=10-	=10-	=10-	=10-	=10-	=10-	=10-	=10-	=10-
2AA/	.	.	1A	Mo-	le-	.	.	.	2.f\	-i	.
4D/	Mo-	le-	.	.	.	2A/	.	-uae	.	.	.
!LO:TX:t=P:problem=kreska pseudotaktowa	!	!	!	!	!	!	!	!	!	!	!
4C/	.	.	.	.	.	.	.	.	4e\	.	.
4BB-/	.	.	1B-	-nar-	-gis	1d	Mo-	le-	2d\	Mo-	le-
4AA/	.	.	.	.	.	.	.	.	.	.	.
!	!	!	!	!	!	!	!	!	!LO:TX:t=P::problem=kreska pseudotaktowa&colon;między nutą a kropkąa	!	!
2GG/	-nar-	.	.	.	.	.	.	.	2.g\	-nar-	-gis
=11-	=11-	=11-	=11-	=11-	=11-	=11-	=11-	=11-	=11-	=11-	=11-
*	*	*	*lig	*	*	*	*	*	*	*	*
!	!	!	!	!	!	!LO:TX:t=P:problem=kreska pseudotaktowa	!	!	!LO:N:xstem:cue	!	!
2AA/	-chi-	-gis	1A	-chi-	gra-	0c	-nar-	-git	.	.	.
.	.	.	.	.	.	.	.	.	4f\	.	.
!LO:TX:t=P:problem=kreska pseudotaktowa	!	!	!	!	!	!	!	!	!	!	!
2FF/	-a	.	.	.	.	.	.	.	1f\	.	.
1C	.	gra-	1G	.	.	.	.	.	.	.	.
*	*	*	*	*	*	*	*	*	*custos:f	*	*
!	!	!	!	!	!	!	!	!	!LO:TX:t=P:problem=kreska pseudotaktowa	!	!
.	.	.	.	.	.	.	.	.	2e\	-chi-	gra-
*	*	*	*Xlig	*	*	*	*	*	*	*	*
!	!	!	!	!	!	!	!	!	!LO:LB:g=original	!	!
=12-	=12-	=12-	=12-	=12-	=12-	=12-	=12-	=12-	=12-	=12-	=12-
!	!	!	!LO:TX:t=P:problem=kreska pseudotaktowa	!	!	!	!	!	!LO:TX:t=P:problem=kreska pseudotaktowa	!	!
2D/	.	-ta	0F	-a	-ta	2A/	-chi-	.	1f	-a	-ta
!LO:TX:t=P:problem=kreska pseudotaktowa	!	!	!	!	!	!	!	!	!	!	!
2BB-/	re-	fac	.	.	.	2d\	-a	gra-	.	.	.
*custos:BB-	*	*	*	*	*	*	*	*	*	*	*
2AA/	-ſpi-	ſer-	.	.	.	2c\	re-	-ta	2r	.	.
!LO:LB:g=original	!	!	!	!	!	!	!	!	!	!	!
!LO:TX:t=P:problem=kreska pseudotaktowa	!	!	!	!	!	!LO:TX:t=P:problem=kreska pseudotaktowa	!	!	!LO:TX:t=P:problem=kreska pseudotaktowa	!	!
2BB-/	-ce	-ua-	.	.	.	2B-\	.	.	2d\	Re-	fac
=13-	=13-	=13-	=13-	=13-	=13-	=13-	=13-	=13-	=13-	=13-	=13-
1C	.	-re	1E	re-	fac	2G/	-ſpi-	fac	2e\	.	.
!	!	!	!	!	!	!	!	!	!LO:TX:t=P:problem=kreska pseudotaktowa	!	!
.	.	.	.	.	.	2A/	-ce	ſer-	2c/	-spi-	ſer-
2BB-/	noſ	.	1F	-ſpi-	ſer-	2B-\	nos	-ua-	2d\	-ce	.
!LO:TX:t=P:problem=kreska pseudotaktowa	!	!	!	!	!	!	!	!	!	!	!
2AA/	.	.	.	.	.	1c\	.	-re	1f\	nos	-ua-
=14-	=14-	=14-	=14-	=14-	=14-	=14-	=14-	=14-	=14-	=14-	=14-
!	!	!	!LO:TX:t=P:problem=kreska pseudotaktowa	!	!	!	!	!	!	!	!
1GG	.	ra-	1G	-ce	-ua-	.	.	.	.	.	.
*	*	*	*	*	*	*custos:c	*	*	*	*	*
!	!	!	!	!	!	!LO:TX:t=P:problem=kreska pseudotaktowa	!	!	!LO:TX:t=P:problem=kreska pseudotaktowa	!	!
.	.	.	.	.	.	2B-\	Di-	ra-	2e\	.	-re
!	!	!	!	!	!	!LO:LB:g=original	!	!	!	!	!
!	!	!	!LO:TX:t=P:problem=kreska pseudotaktowa	!	!	!	!	!	!	!	!
2FF/	.	-ta	1A	nos	-re	1c	-a	-ta	2.f\	.	.
*	*	*ij	*	*	*	*	*	*	*	*	*
1F\	Di-	fac	.	.	.	.	.	.	.	.	.
!	!	!	!	!	!	!	!	!	!LO:TX:t=P:problem=kreska pseudotaktowa	!	!
.	.	.	.	.	.	.	.	.	4e\	.	.
=15-	=15-	=15-	=15-	=15-	=15-	=15-	=15-	=15-	=15-	=15-	=15-
*	*	*	*lig	*	*	*	*	*	*	*	*
.	.	.	1G	di-	ra-	2r	.	.	2d\	.	.
*	*	*	*	*	*	*	*ij	*	*	*	*
!LO:TX:t=P:problem=kreska pseudotaktowa	!	!	!	!	!	!LO:TX:t=P:problem=kreska pseudotaktowa	!	!	!LO:TX:t=P:problem=kreska pseudotaktowa	!	!
2E\	-a	ſer-	.	.	.	2C/	re-	.	2c/	.	.
2D\	.	-ua-	1F	.	.	2F/	-ſpi-	.	2A/	.	.
*	*ij	*	*	*	*	*	*	*	*	*	*
2BB-/	Di-	-re	.	.	.	2D/	-ce	.	2.d\	Di-	ra-
*	*	*	*Xlig	*	*	*	*	*	*	*	*
=16-	=16-	=16-	=16-	=16-	=16-	=16-	=16-	=16-	=16-	=16-	=16-
*	*	*	*lig	*	*	*	*	*	*	*	*
1C	.	ra-	1E	.	.	1G	nos	.	.	.	.
.	.	.	.	.	.	.	.	.	4c/	.	.
.	.	.	.	.	.	.	.	.	1c\	.	.
!LO:TX:t=P:problem=kreska pseudotaktowa	!	!	!	!	!	!LO:TX:t=P:problem=kreska pseudotaktowa	!	!	!	!	!
1GG	-a	-ta	1D	.	.	1G	Di-	.	.	.	.
*	*Xij	*Xij	*	*	*	*	*	*	*	*	*
!	!	!	!	!	!	!	!	!	!LO:TX:t=P:problem=kreska pseudotaktowa	!	!
.	.	.	.	.	.	.	.	.	2B-/	-a	-ta
*	*	*	*Xlig	*	*	*	*	*	*	*	*
=17-	=17-	=17-	=17-	=17-	=17-	=17-	=17-	=17-	=17-	=17-	=17-
!	!	!	!LO:TX:t=P:problem=kreska pseudotaktowa	!	!	!	!	!	!LO:TX:t=P:problem=kreska pseudotaktowa	!	!
2r	.	.	0C	-a	-ta	1E	-a	.	1c	.	.
*	*	*	*	*	*	*	*Xij	*	*	*	*
!LO:TX:t=P:problem=kreska pseudotaktowa	!	!	!	!	!	!	!	!	!	!	!
2G\	Vt	Vir-	.	.	.	.	.	.	.	.	.
2E\	.	.	.	.	.	2G/	Vt	Vir-	2r	.	.
!LO:TX:t=P::problem=kreska pseudotaktowa&colon;między nutą a kropką	!	!	!	!	!	!	!	!	!	!	!
2.G\	e-	-go	.	.	.	2E/	e-	-go	1c\	Vt	Vir-
=18-	=18-	=18-	=18-	=18-	=18-	=18-	=18-	=18-	=18-	=18-	=18-
.	.	.	1F	Vt	Vir-	2F/	-ru-	Vir-	.	.	.
4F\	-ru-	.	.	.	.	.	.	.	.	.	.
!	!	!	!	!	!	!LO:TX:t=P:problem=kreska pseudotaktowa	!	!	!LO:TX:t=P:problem=kreska pseudotaktowa	!	!
1F\	.	Vir-	.	.	.	2D/	-a-	-gi-	2B-/	e-	-go
.	.	.	1G	e-	-go	1C	-mur	-nu(m)	2.c/	-ru-	Vir-
!LO:TX:t=P:problem=kreska pseudotaktowa	!	!	!	!	!	!	!	!	!	!	!
2E\	-a-	-gi-	.	.	.	.	.	.	.	.	.
!	!	!	!	!	!	!	!	!	!LO:TX:t=P:problem=kreska pseudotaktowa	!	!
.	.	.	.	.	.	.	.	.	4B-/	.	.
=19-	=19-	=19-	=19-	=19-	=19-	=19-	=19-	=19-	=19-	=19-	=19-
*	*	*	*lig	*	*	*	*ij	*	*	*	*
2.F\	-mur	-num	1A	-ru-	Vir-	2.c\	Vt	.	4A/	.	.
.	.	.	.	.	.	.	.	.	4F/	.	.
!	!	!	!	!	!	!	!	!	!LO:TX:t=P:problem=kreska pseudotaktowa	!	!
.	.	.	.	.	.	.	.	.	2.f\	.	.
4G\	.	.	.	.	.	4B-\	.	.	.	.	.
*	*ij	*ij	*	*	*	*	*	*	*	*	*
2.A\	vt	Vir-	1F	.	.	4A/	.	.	.	.	.
.	.	.	.	.	.	4G/	.	.	4g\	.	.
.	.	.	.	.	.	1F/	e-	.	1a\	.	.
!LO:TX:t=P:problem=kreska pseudotaktowa	!	!	!	!	!	!	!	!	!	!	!
4G\	.	.	.	.	.	.	.	.	.	.	.
*	*	*	*Xlig	*	*	*	*	*	*	*	*
=20-	=20-	=20-	=20-	=20-	=20-	=20-	=20-	=20-	=20-	=20-	=20-
*	*	*	*lig	*	*	*	*	*	*	*	*
2F\	e-	-go	1c	-a-	-gi-	.	.	.	.	.	.
!	!	!	!	!	!	!LO:TX:t=P:problem=kreska pseudotaktowa	!	!	!LO:TX:t=P:problem=kreska pseudotaktowa	!	!
2E\	-ru-	Vir-	.	.	.	2G/	-ru-	.	2g\	.	.
1D	-a-	-gi-	1d	.	.	0A	-a-	.	1f	-a-	-gi-
*	*	*	*Xlig	*	*	*	*	*	*	*	*
=21-	=21-	=21-	=21-	=21-	=21-	=21-	=21-	=21-	=21-	=21-	=21-
*	*	*	*custos:F	*	*	*	*	*	*	*	*
!	!	!	!LO:TX:t=P:problem=kreska pseudotaktowa	!	!	!	!	!	!LO:TX:t=P:problem=kreska pseudotaktowa	!	!
!LO:TX:t=P:problem=kreska pseudotaktowa	!	!	!	!	!	!	!	!	!	!	!
1AA	-mur	-num	0c	-mur	-num	.	.	.	1e	-mur	-num
*	*Xij	*Xij	*	*	*	*	*	*	*	*	*
!	!	!	!	!	!	!LO:TX:t=P:problem=kreska pseudotaktowa	!	!	!	!	!
1C	er-	et	.	.	.	1G	-mur	.	2r	.	.
*	*	*	*	*	*	*	*Xij	*	*	*	*
!	!	!	!	!	!	!	!	!	!LO:TX:t=P:problem=kreska pseudotaktowa	!	!
.	.	.	.	.	.	.	.	.	2e\	er-	es
!	!	!	!LO:LB:g=original	!	!	!	!	!	!	!	!
=22-	=22-	=22-	=22-	=22-	=22-	=22-	=22-	=22-	=22-	=22-	=22-
1D	-ran-	.	1F	er-	es	1r	.	.	2d\	-ran-	in-
!	!	!	!	!	!	!	!	!	!LO:TX:t=P:problem=kreska pseudotaktowa	!	!
.	.	.	.	.	.	.	.	.	2f\	-tes	-te-
1E	.	in-	1G	.	in-	2r	.	.	2e\	in	-me-
.	.	.	.	.	.	1c\	er-	et	2g\	Vi-	-ra-
=23-	=23-	=23-	=23-	=23-	=23-	=23-	=23-	=23-	=23-	=23-	=23-
*	*	*	*	*	*	*	*	*	*custos:d	*	*
!	!	!	!	!	!	!	!	!	!LO:TX:t=P:problem=kreska pseudotaktowa	!	!
!LO:TX:t=P:problem=kreska pseudotaktowa	!	!	!LO:TX:t=P:problem=kreska pseudotaktowa	!	!	!	!	!	!	!	!
1F	-tes	-te-	1A	-ran-	-te-	.	.	.	1f	-a	-ta
.	.	.	.	.	.	1d\	.	in-	.	.	.
!	!	!	!	!	!	!	!	!	!LO:LB:g=original	!	!
!	!	!	!	!	!	!	!	!	!LO:TX:t=P:problem=kreska pseudotaktowa	!	!
2.G\	.	-me-	1B-	-tes	-me-	.	.	.	1r	.	.
!	!	!	!	!	!	!LO:TX:t=P:problem=kreska pseudotaktowa	!	!	!	!	!
.	.	.	.	.	.	2e\	-ran-	-te-	.	.	.
!LO:TX:t=P:problem=kreska pseudotaktowa	!	!	!	!	!	!	!	!	!	!	!
4F\	in	.	.	.	.	.	.	.	.	.	.
=24-	=24-	=24-	=24-	=24-	=24-	=24-	=24-	=24-	=24-	=24-	=24-
*	*	*	*lig	*	*	*	*	*	*	*	*
4D\	.	.	1A	in	-ra-	2f\	-tes	-me-	2r	.	.
4E\	.	.	.	.	.	.	.	.	.	.	.
*	*	*	*	*	*	*	*	*	*	*ij	*
!	!	!	!	!	!	!	!	!	!LO:TX:t=P:problem=nie rozpisuję powtórzenia tekstu dla dolnej zwrotki, bo znak powtórzenia jest tylko jeden	!	!
!LO:TX:t=P:problem=kreska pseudotaktowa	!	!	!	!	!	!	!	!	!LO:TX:t=P:problem=kreska pseudotaktowa	!	!
2F\	.	-ra-	.	.	.	1d\	.	.	2d\	er-	.
1E	.	-ta	1G	.	.	.	.	.	1e	-ran-	.
.	.	.	.	.	.	2c\	.	-ra-	.	.	.
*	*	*	*Xlig	*	*	*	*	*	*	*	*
=25-	=25-	=25-	=25-	=25-	=25-	=25-	=25-	=25-	=25-	=25-	=25-
*	*	*ij	*	*	*	*	*	*	*	*	*
!	!	!	!	!	!	!LO:TX:t=P:problem=kreska pseudotaktowa	!	!	!LO:TX:t=P:problem=kreska pseudotaktowa	!	!
2D/	.	in-	0F	Vi-	.	1d	in	.	1f	-tes	.
2BB-/	.	-te-	.	.	.	.	.	.	.	.	.
*custos:C	*	*	*	*	*	*	*	*	*	*	*
!LO:TX:t=P:problem=kreska pseudotaktowa	!	!	!	!	!	!	!	!	!	!	!
1D	.	-me-	.	.	.	1B-	Vi-	-ta	4d\	in	.
.	.	.	.	.	.	.	.	.	4e\	.	.
.	.	.	.	.	.	.	.	.	4f\	.	.
!	!	!	!	!	!	!	!	!	!LO:TX:t=P:problem=kreska pseudotaktowa	!	!
.	.	.	.	.	.	.	.	.	4d\	.	.
!LO:PB:g=original	!	!	!	!	!	!	!	!	!	!	!
=26-	=26-	=26-	=26-	=26-	=26-	=26-	=26-	=26-	=26-	=26-	=26-
2C/	Vi-	-ra-	0G	.	.	2c\	.	.	2e\	.	.
!	!	!	!	!	!	!LO:TX:t=P:problem=kreska pseudotaktowa	!	!	!	!	!
2BB-/	.	.	.	.	.	2d\	-a	.	1f\	Vi-	.
!LO:TX:t=P:problem=kreska pseudotaktowa	!	!	!	!	!	!	!	!	!	!	!
1C	-a	.	.	.	.	2c\	.	.	.	.	.
!	!	!	!	!	!	!	!	!	!LO:TX:t=P:problem=kreska pseudotaktowa	!	!
.	.	.	.	.	.	4r	.	.	2e\	.	.
*	*	*	*	*	*	*	*ij	*ij	*	*	*
!	!	!	!	!	!	!LO:TX:t=P:problem=kreska pseudotaktowa	!	!	!	!	!
.	.	.	.	.	.	4G/	er-	er	.	.	.
=27-	=27-	=27-	=27-	=27-	=27-	=27-	=27-	=27-	=27-	=27-	=27-
!	!	!	!	!	!	!	!	!	!LO:TX:t=P:problem=kreska pseudotaktowa	!	!
2FF/	.	-ta	[<0Fl;>	-a.	-ta.	2.c\	-ran-	in-	1f	-a	.
*	*	*Xij	*	*	*	*	*	*	*	*Xij	*
!LO:TX:t=P:problem=kreska pseudotaktowa	!	!	!	!	!	!	!	!	!	!	!
2FF/	er-	.	.	.	.	.	.	.	.	.	.
.	.	.	.	.	.	4B-\	.	.	.	.	.
2.F\	-ran-	.	.	.	.	2.A/	-tes	-ter-	2r	.	.
!	!	!	!	!	!	!	!	!	!LO:TX:t=P:problem=kreska pseudotaktowa	!	!
.	.	.	.	.	.	.	.	.	2c/	er-	.
!	!	!	!	!	!	!LO:TX:t=P:problem=kreska pseudotaktowa	!	!	!	!	!
4E\	.	.	.	.	.	4G/	.	.	.	.	.
=28-	=28-	=28-	=28-	=28-	=28-	=28-	=28-	=28-	=28-	=28-	=28-
2.D/	.	.	0F_	.	.	2F/	.	.	2.f\	-ran-	.
!	!	!	!	!	!	!LO:TX:t=P:problem=kreska pseudotaktowa	!	!	!	!	!
!	!	!	!	!	!	!	!	!	!LO:TX:t=P:problem=kreska pseudotaktowa	!	!
.	.	.	.	.	.	2F/	in	-me-	.	.	.
!LO:TX:t=P:problem=kreska pseudotaktowa	!	!	!	!	!	!	!	!	!	!	!
4C/	.	.	.	.	.	.	.	.	4e\	.	.
!	!	!	!	!	!	!LO:LB:g=original	!	!	!	!	!
2BB-/	-tes	.	.	.	.	2.f\	Vi-	-ra-	2d\	-tes	.
!	!	!	!	!	!	!	!	!	!LO:TX:t=P:problem=kreska pseudotaktowa	!	!
2AA/	in	.	.	.	.	.	.	.	2c/	.	.
!	!	!	!	!	!	!LO:TX:t=P:problem=kreska pseudotaktowa	!	!	!	!	!
.	.	.	.	.	.	4e\	.	.	.	.	.
=29-	=29-	=29-	=29-	=29-	=29-	=29-	=29-	=29-	=29-	=29-	=29-
0BB-	Vi-	.	0F_	.	.	2d\	.	.	2B-/	in	.
!	!	!	!	!	!	!	!	!	!LO:TX:t=P:problem=kreska pseudotaktowa	!	!
.	.	.	.	.	.	2c\	.	.	2c/	Vi-	.
.	.	.	.	.	.	1B-	.	.	1d	-a.	.
=30-	=30-	=30-	=30-	=30-	=30-	=30-	=30-	=30-	=30-	=30-	=30-
!LO:TX:a:i:t=Offertorium	!	!	!LO:TX:a:i:t=Offertorium.	!	!	!LO:TX:a:i:t=Off(e)r(toriu)m	!	!	!LO:TX:a:i:t=Offertorium	!	!
0FF;>	-a.	.	0F]	.	.	0A;;	a	ta	0c;>	.	.
==	==	==	==	==	==	==	==	==	==	==	==
*-	*-	*-	*-	*-	*-	*-	*-	*-	*-	*-	*-
!!!system-decoration: [(s1,s2,s3,s4)]
!!!RDF**kern: l = terminal long
!!!RDF**kern: > = above
!!!RDF**kern: < = below
!!!EED: Mateusz Mrugas
!!!EEV: 2021-03-15
!!!ENC: Mateusz Solarz
!!!END: 2021-02-23
